X:1
T:Title
%%score { 1 | 2 }
L:1/8
Q:1/4=100
M:4/4
K:F
V:1 treble nm="Grand Piano"
V:2 bass 
V:1
 A4 A2 A2 | A4 [_EA]2 [EA]2 | [DB]4 [DF]2 [DG]2 | %3
w: Wm.~B.~Bradbury * *|||
[M:11/8] [^CA]-[CA]-[CA]-[CA]-[CA]-[CA]- [CA]3 z2 |[M:4/4] A4 A2 A2 | [Ec]4 [EG]4 | %6
w: |||
 [EG]3 [FA] [EB]2 [EB]2 | A6 z2 | A4 A2 A2 | [Ec]4 [EG]4 | [EG]3 [FA] [EB]2 B2 | A6 z2 | %12
w: ||||||
 [^CA]4 [CA]2 [CG]2 | [DF]2 [DF]6 | %14
w: ||
 [DF]2 [DF]2 F2 F2[Q:1/4=98][Q:1/4=97][Q:1/4=95][Q:1/4=94][Q:1/4=92][Q:1/4=91][Q:1/4=89][Q:1/4=88][Q:1/4=86][Q:1/4=84][Q:1/4=83][Q:1/4=81][Q:1/4=80][Q:1/4=78][Q:1/4=77] | %15
w: |
 F8 |] %16
w: |
V:2
 [F,C]4 [E,G,^C]2 [E,G,C]2 | [D,F,D]4 [C,F,]2 [C,F,]2 | [B,,F,]4 [B,,F,]2 [B,,D,]2 | %3
[M:11/8] [A,,E,]-[A,,E,]-[A,,E,]-[A,,E,]-[A,,E,]-[A,,E,]- [A,,E,]3 z2 | %4
[M:4/4] [F,F]4 [F,F]2 [F,F]2 | [C,G,]4 [C,C]4 | [C,B,]3 [C,A,] [C,G,]2 [C,C]2 | [F,CF]6 z2 | %8
 [F,CF]4 [F,F]2 [F,F]2 | [C,G,]4 [C,C]4 | [C,B,]3 [C,A,] [C,G,]2 [C,G,C]2 | [F,C]6 z2 | %12
 [A,,E,]4 [A,,E,]2 [A,,A,]2 | [D,A,]2 [D,A,]6 | [B,,B,]2 [B,,B,]2 [D,B,D]2 [D,B,D]2 | [F,A,C]8 |] %16

